X: 5296
T: Brother's
R: jig
M: 6/8
K: Edorian
|:"Emin/B" B,2E EFE|B,2E EFE|"D/A" A,2D FED|A,2D FED|
"Emin/B" B,2E EFE|B,2E "C"G2A|"Emin/B" BAG "D/A" AGF|1 "Emin/B" E3 E3:|2 "Emin/B" E3 EGA||
|:"Emin/B" B2B BAG|"D/A" A2A AGF|"Emin/B" G2 G GFE|"D/A" F2 F FGA|
"Emin/B" B2B BAG|"D/A" A2A AGF|"Emin/B" GFE "D/A" FED|1 "Emin/B" E3 EGA:|2 "Emin/B" E3 E3||

